X:1
T:Indian Point
R:Jig
M:6/8
K:Em
"Em"B,EF G2A|BAG FED|"C"CEF G2A|BAG BAG|"D"FED A,2D|
"D"FEF AGF|1"Em"EFG BAG|"B"F3 FED:|2"Em"GFE "D"FED|"Em"E3 E2B|:
"Em"Bef gfe|"C"cef gfe|"D"dfg agf|"Em"gfe "D"fed|
"Em"Bef gfe|"C"ceg a2a|"B"bag fgf|1"Em"e3 e2B:|2"Em"e3 e2B,|]
